X:26
T:Broken heart - Setter
%%VWML:SBG-1-2-165-0
F:http://www.vwml.org/record/SBG/1/2/165
Z:Original Sibelius transcriptions by M. & S. Graebe
M:3/4
I:linebreak $
K:Bb
V:1 treble nm="P1"
V:1
 B/ | B3/2 B/ B | B A B | G F E | D C B, | D E F | G c B | A G F |$ B2 c/ | d3/2 d/ d | d c c | %11
w: |||||||||||
 A B c | A G F | G A B | (c e) d/ d/ | c G G | G3 |$"^chorus" d f e | c3 | B e d | d3/2 c/ B | %21
w: ||||||||||
 B c d | e f e | d c B | f3 | d3/2 e/ d |$ d c B | c d c | B3/2 A/ B | F3 | F B c | B A G | F G G | %33
w: ||myrtle _ be|borne|||||||||
 G3 | %34
w: |

